src/asset/24px/close-small.svg

<svg fill="none" height="24" viewBox="0 0 24 24" width="24" xmlns="http://www.w3.org/2000/svg"><path clip-rule="evenodd" d="m7.29289 7.29289c.39053-.39052 1.02369-.39052 1.41422 0l3.29289 3.29291 3.2929-3.29291c.3905-.39052 1.0237-.39052 1.4142 0 .3905.39053.3905 1.02369 0 1.41422l-3.2929 3.29289 3.2929 3.2929c.3905.3905.3905 1.0237 0 1.4142s-1.0237.3905-1.4142 0l-3.2929-3.2929-3.29289 3.2929c-.39053.3905-1.02369.3905-1.41422 0-.39052-.3905-.39052-1.0237 0-1.4142l3.29291-3.2929-3.29291-3.29289c-.39052-.39053-.39052-1.02369 0-1.41422z" fill="#808080" fill-rule="evenodd"/></svg>

<svg width="24" height="24" viewBox="0 0 24 24" fill="none" xmlns="http://www.w3.org/2000/svg">
<path fill-rule="evenodd" clip-rule="evenodd" d="M7.29289 7.29289C7.68342 6.90237 8.31658 6.90237 8.70711 7.29289L12 10.5858L15.2929 7.29289C15.6834 6.90237 16.3166 6.90237 16.7071 7.29289C17.0976 7.68342 17.0976 8.31658 16.7071 8.70711L13.4142 12L16.7071 15.2929C17.0976 15.6834 17.0976 16.3166 16.7071 16.7071C16.3166 17.0976 15.6834 17.0976 15.2929 16.7071L12 13.4142L8.70711 16.7071C8.31658 17.0976 7.68342 17.0976 7.29289 16.7071C6.90237 16.3166 6.90237 15.6834 7.29289 15.2929L10.5858 12L7.29289 8.70711C6.90237 8.31658 6.90237 7.68342 7.29289 7.29289Z" fill="#808080"/>
</svg>
